build/img/svg/instagram.svg

<svg width="22" height="22" viewBox="0 0 22 22" fill="none" xmlns="http://www.w3.org/2000/svg">
<path fill-rule="evenodd" clip-rule="evenodd" d="M6.465 0.066C7.638 0.012 8.012 0 11 0C13.988 0 14.362 0.013 15.534 0.066C16.706 0.119 17.506 0.306 18.206 0.577C18.939 0.854 19.604 1.287 20.154 1.847C20.714 2.396 21.146 3.06 21.422 3.794C21.694 4.494 21.88 5.294 21.934 6.464C21.988 7.639 22 8.013 22 11C22 13.988 21.987 14.362 21.934 15.535C21.881 16.705 21.694 17.505 21.422 18.205C21.146 18.9391 20.7133 19.6042 20.154 20.154C19.604 20.714 18.939 21.146 18.206 21.422C17.506 21.694 16.706 21.88 15.536 21.934C14.362 21.988 13.988 22 11 22C8.012 22 7.638 21.987 6.465 21.934C5.295 21.881 4.495 21.694 3.795 21.422C3.06092 21.146 2.39582 20.7133 1.846 20.154C1.28638 19.6047 0.853315 18.9399 0.577 18.206C0.306 17.506 0.12 16.706 0.066 15.536C0.012 14.361 0 13.987 0 11C0 8.012 0.013 7.638 0.066 6.466C0.119 5.294 0.306 4.494 0.577 3.794C0.853723 3.06008 1.28712 2.39531 1.847 1.846C2.39604 1.2865 3.06047 0.853443 3.794 0.577C4.494 0.306 5.294 0.12 6.464 0.066H6.465ZM15.445 2.046C14.285 1.993 13.937 1.982 11 1.982C8.063 1.982 7.715 1.993 6.555 2.046C5.482 2.095 4.9 2.274 4.512 2.425C3.999 2.625 3.632 2.862 3.247 3.247C2.88205 3.60205 2.60118 4.03428 2.425 4.512C2.274 4.9 2.095 5.482 2.046 6.555C1.993 7.715 1.982 8.063 1.982 11C1.982 13.937 1.993 14.285 2.046 15.445C2.095 16.518 2.274 17.1 2.425 17.488C2.601 17.965 2.882 18.398 3.247 18.753C3.602 19.118 4.035 19.399 4.512 19.575C4.9 19.726 5.482 19.905 6.555 19.954C7.715 20.007 8.062 20.018 11 20.018C13.938 20.018 14.285 20.007 15.445 19.954C16.518 19.905 17.1 19.726 17.488 19.575C18.001 19.375 18.368 19.138 18.753 18.753C19.118 18.398 19.399 17.965 19.575 17.488C19.726 17.1 19.905 16.518 19.954 15.445C20.007 14.285 20.018 13.937 20.018 11C20.018 8.063 20.007 7.715 19.954 6.555C19.905 5.482 19.726 4.9 19.575 4.512C19.375 3.999 19.138 3.632 18.753 3.247C18.3979 2.88207 17.9657 2.60121 17.488 2.425C17.1 2.274 16.518 2.095 15.445 2.046ZM9.595 14.391C10.3797 14.7176 11.2534 14.7617 12.0669 14.5157C12.8805 14.2697 13.5834 13.7489 14.0556 13.0422C14.5278 12.3356 14.7401 11.4869 14.656 10.6411C14.572 9.79534 14.197 9.00497 13.595 8.405C13.2112 8.02148 12.7472 7.72781 12.2363 7.54515C11.7255 7.36248 11.1804 7.29536 10.6405 7.34862C10.1006 7.40187 9.57915 7.57418 9.1138 7.85313C8.64845 8.13208 8.25074 8.51074 7.9493 8.96185C7.64786 9.41296 7.45019 9.92529 7.37052 10.462C7.29084 10.9986 7.33115 11.5463 7.48854 12.0655C7.64593 12.5847 7.91648 13.0626 8.28072 13.4647C8.64496 13.8668 9.09382 14.1832 9.595 14.391ZM7.002 7.002C7.52702 6.47697 8.15032 6.0605 8.8363 5.77636C9.52228 5.49222 10.2575 5.34597 11 5.34597C11.7425 5.34597 12.4777 5.49222 13.1637 5.77636C13.8497 6.0605 14.473 6.47697 14.998 7.002C15.523 7.52702 15.9395 8.15032 16.2236 8.8363C16.5078 9.52228 16.654 10.2575 16.654 11C16.654 11.7425 16.5078 12.4777 16.2236 13.1637C15.9395 13.8497 15.523 14.473 14.998 14.998C13.9377 16.0583 12.4995 16.654 11 16.654C9.50046 16.654 8.06234 16.0583 7.002 14.998C5.94166 13.9377 5.34597 12.4995 5.34597 11C5.34597 9.50046 5.94166 8.06234 7.002 7.002ZM17.908 6.188C18.0381 6.06527 18.1423 5.91768 18.2143 5.75397C18.2863 5.59027 18.3248 5.41377 18.3274 5.23493C18.33 5.05609 18.2967 4.87855 18.2295 4.71281C18.1622 4.54707 18.0624 4.39651 17.936 4.27004C17.8095 4.14357 17.6589 4.04376 17.4932 3.97652C17.3275 3.90928 17.1499 3.87598 16.9711 3.87858C16.7922 3.88119 16.6157 3.91965 16.452 3.9917C16.2883 4.06374 16.1407 4.1679 16.018 4.298C15.7793 4.55103 15.6486 4.88712 15.6537 5.23493C15.6588 5.58274 15.7992 5.91488 16.0452 6.16084C16.2911 6.40681 16.6233 6.54723 16.9711 6.5523C17.3189 6.55737 17.655 6.42669 17.908 6.188Z" fill="white"/>
</svg>

<svg width="22" height="22" fill="none" xmlns="http://www.w3.org/2000/svg"><path fill-rule="evenodd" clip-rule="evenodd" d="M6.465.066C7.638.012 8.012 0 11 0c2.988 0 3.362.013 4.534.066 1.172.053 1.972.24 2.672.511.733.277 1.398.71 1.948 1.27.56.549.992 1.213 1.268 1.947.272.7.458 1.5.512 2.67C21.988 7.639 22 8.013 22 11c0 2.988-.013 3.362-.066 4.535-.053 1.17-.24 1.97-.512 2.67a5.396 5.396 0 0 1-1.268 1.949c-.55.56-1.215.992-1.948 1.268-.7.272-1.5.458-2.67.512-1.174.054-1.548.066-4.536.066-2.988 0-3.362-.013-4.535-.066-1.17-.053-1.97-.24-2.67-.512a5.396 5.396 0 0 1-1.949-1.268 5.392 5.392 0 0 1-1.269-1.948c-.271-.7-.457-1.5-.511-2.67C.012 14.361 0 13.987 0 11c0-2.988.013-3.362.066-4.534.053-1.172.24-1.972.511-2.672a5.396 5.396 0 0 1 1.27-1.948A5.392 5.392 0 0 1 3.794.577c.7-.271 1.5-.457 2.67-.511h.001Zm8.98 1.98c-1.16-.053-1.508-.064-4.445-.064-2.937 0-3.285.011-4.445.064-1.073.049-1.655.228-2.043.379-.513.2-.88.437-1.265.822a3.412 3.412 0 0 0-.822 1.265c-.151.388-.33.97-.379 2.043-.053 1.16-.064 1.508-.064 4.445 0 2.937.011 3.285.064 4.445.049 1.073.228 1.655.379 2.043.176.477.457.91.822 1.265.355.365.788.646 1.265.822.388.151.97.33 2.043.379 1.16.053 1.507.064 4.445.064 2.938 0 3.285-.011 4.445-.064 1.073-.049 1.655-.228 2.043-.379.513-.2.88-.437 1.265-.822.365-.355.646-.788.822-1.265.151-.388.33-.97.379-2.043.053-1.16.064-1.508.064-4.445 0-2.937-.011-3.285-.064-4.445-.049-1.073-.228-1.655-.379-2.043-.2-.513-.437-.88-.822-1.265a3.413 3.413 0 0 0-1.265-.822c-.388-.151-.97-.33-2.043-.379Zm-5.85 12.345a3.67 3.67 0 1 0 2.641-6.846 3.67 3.67 0 0 0-2.641 6.846ZM7.002 7.002a5.654 5.654 0 1 1 7.996 7.996 5.654 5.654 0 0 1-7.996-7.996Zm10.906-.814a1.336 1.336 0 1 0-1.834-1.944 1.336 1.336 0 0 0 1.834 1.944Z" fill="#fff"/></svg>
